projects/vfh1/img/icons/phone.svg

<svg viewBox="0 0 14 22" fill="none" xmlns="http://www.w3.org/2000/svg">
<path fill="currentColor" d="M10.854 0.458374H3.18734C2.55192 0.458374 1.94253 0.710791 1.49323 1.1601C1.04392 1.6094 0.791504 2.21879 0.791504 2.85421V19.1459C0.791504 19.7813 1.04392 20.3907 1.49323 20.84C1.94253 21.2893 2.55192 21.5417 3.18734 21.5417H10.854C11.4894 21.5417 12.0988 21.2893 12.5481 20.84C12.9974 20.3907 13.2498 19.7813 13.2498 19.1459V2.85421C13.2498 2.21879 12.9974 1.6094 12.5481 1.1601C12.0988 0.710791 11.4894 0.458374 10.854 0.458374ZM7.02067 20.5834C6.22525 20.5834 5.58317 19.9413 5.58317 19.1459C5.58317 18.3505 6.22525 17.7084 7.02067 17.7084C7.81609 17.7084 8.45817 18.3505 8.45817 19.1459C8.45817 19.9413 7.81609 20.5834 7.02067 20.5834ZM11.3332 16.75H2.70817V3.33337H11.3332V16.75Z"/>
</svg>

<svg viewBox="0 0 14 22" fill="none" xmlns="http://www.w3.org/2000/svg"><path fill="currentColor" d="M10.854.458H3.187A2.396 2.396 0 00.792 2.854v16.292a2.396 2.396 0 002.395 2.396h7.667a2.396 2.396 0 002.396-2.396V2.854A2.396 2.396 0 0010.854.458zM7.021 20.583a1.436 1.436 0 01-1.438-1.437c0-.796.642-1.438 1.438-1.438.795 0 1.437.643 1.437 1.438 0 .795-.642 1.437-1.437 1.437zm4.312-3.833H2.708V3.333h8.625V16.75z"/></svg>
